X:1
T:Азәрбајҹан ССР-ин Дөвләт Һимни
T:Азәрбајҹан ССР-ин Дөвләт Һимни
T:Үзејир Һаҹыбəјов
T:Сəмəд Вурғун
C:Үзејир Һаҹыбəјов
Z:Сəмəд Вурғун
%%score { ( 1 2 ) | ( 3 4 ) }
L:1/8
Q:1/4=115
M:4/4
K:F
V:1 treble nm="Piano" snm="Pno."
V:2 treble 
V:3 bass 
V:4 bass 
V:1
!f!!<(! !//-![Acf]2!<)! F2 !>![FAcf] !>![Aa]!>![Aa]!>![Aa] |:S [Adfa]4 z ([cfac'][=Beg=b][cfac']) | %2
 [dfad']4 z [cc'][=Beg=b][cegc'] | [dfad']2 [dfad']2 [Bda]2 [A^ca]>[Gg] | %4
 [Adfa]4 z ([Gg][Ada][Ff]) | [GBdg]4 z ([GBdg][FAdf][Aa]) | [G=Bdg]4 z [FAdf][G_Bdg][Aa] | %7
 [Adfa]2 [GBg]2 [FAcf]2 [GB=dg]>[Ee] | [Ff]4 z [Ff] [Gg]>[Gg] | [Gg]4 z ([Gceg][FBdf][Aa]) | %10
 [Gg]4 z ([Ff][Ece][Fdf]) | [GBdg]2 [GBdg]2 [DFAd]2 [CEGc]2 | [Dd]4 z ([Aa][Gg][Ff]) | %13
 [GBdg]2 [Adfa]2 [GBdg]2 (3([F=Bf][Ee][Dd]) | [CEGc]4- [CEGc] ([Dd][EGBe][Ff]) | %15
 [GBdg]2 [GBdg]2 [DFAd]2 [CEGc]2 | [Dd]4 z [CG_Bc][DGBd][EGBe] | %17
 [FAcf]2 [CGBc]2 [FAcf]2 (3([GBdg][Ff][Gg]) | [Acfa]4- [Acfa][dfad'][dfad'][dfad'] | %19
 [cfac']2 [cfac']2 [G=Bdg]2 ([G_B_dg][Aa]) | [Ff]4 z ([CGBc][DGBd][EGBe]) | %21
 [FAcf]2 [CGBc]2 [FAcf]2 (3([GB_dg][Ff][Gg]) | [Acfa]4- [Acfa][dfad'][dfad'][dfad'] | %23
 [cfac']2 [cfac']2 [G=Bdg]2 ([G_B_dg][Aa]) | [Ff]4 z [Fc_ef][Gceg][Acea] | %25
 [Bdfb]2 [dfbd']2 [d^fad']2 (3([cfc'][Bb][Aa]) | [GBdg]4 z [Ff][GBg][Ff] | %27
 [Acfa]2 [Acfa]2 [G=Bdg]2 ([G_B_dg]>[Aa]) | [Ff]4 z [Fc_ef][Gceg][Acea] | %29
 [Bdfb]2 [dfbd']2 [d^fad']2 (3[cfac'][Bb][Aa] | [GBdg]4 z [cc'] [cc']>[cc'] |2 %31
 [cfc']2 [cfc']2 [G=Bdg]2 ([G_B_dg][Aa]) | [Ff]4- [Ff][Aa][A^cea][Aa] :|3 %33
S"^rit."[Q:1/4=115] [cfac']2[Q:1/4=107]"^.5" [cfac']2[Q:1/4=100] [dgbd']2[Q:1/4=92]"^.5" [egbe']2[Q:1/4=111]"^.3"[Q:1/4=103]"^.8"[Q:1/4=96]"^.3"[Q:1/4=88]"^.8" | %34
!f![Q:1/4=85] [fac'f'][Q:1/4=81]"^.3"!<(! z[Q:1/4=77]"^.5" [fac'f'][Q:1/4=73]"^.8" z!<)!!ff![Q:1/4=70] [fac'f'][Q:1/4=66]"^.3" z[Q:1/4=62]"^.5" z2 |] %35
V:2
 x6 [^ce]2 |: z F/G/ A/G/F/G/ [A,DA]2 z2 | z =B/c/ [Fd]/c/B/c/ [Fd]2 x2 | x8 | %4
 z F/G/ [CEA]/G/F/G/ [A,DA]2 x2 | z E/F/ [B,DG]/F/E/F/ [B,DG]2 z2 | %6
 z =B,/C/ [B,D]/C/B,/C/ [B,D]2 z2 | x2 d_d x4 | z C/G/ [_A,F]/E/D/E/ [=A,F]2 z2 | %9
 z E/F/ [B,DG]/F/E/F/ [CEG]2 z2 | z E/F/ [B,DG]/F/E/F/ [CEG]2 z2 | x8 | %12
 [FA]=B/c/ [FAd]/c/B/c/ [FAd]2 z2 | x8 | x8 | x8 | [FA]=B/c/ [FAd]/c/B/c/ [FAd] z z2 | x8 | x8 | %19
 x8 | z C/G/ [_A,F]/E/D/E/ [=A,F] z z2 | x8 | x8 | x8 | z A/G/ [_A,F]/E/D/E/ [=A,F] z z2 | x8 | %26
 x8 | x8 | z A/G/ [_A,F]/E/D/G/ [=A,F] z z2 | x8 | x8 |2 x8 | z C/G/ [_A,F]/E/D/E/ [=A,F] z G2 :|3 %33
 x8 | x8 |] %35
V:3
 !//-![F,,C,]2 F,2 !>![F,,F,] z [A,,,A,,]2 |: [D,,D,]2 [E,,E,]2 [F,,F,]2 [E,,E,]2 | %2
 [D,,D,]2 [G,,D,=B,]2 [D,,D,]2 [E,,E,]2 | [D,,D,]2 [F,,F,]2 [E,,E,]2 [A,,,A,,]2 | z4 z2 [F,A,D]2 | %5
 [G,,G,]2 [F,,F,]2 [E,,E,]2 [D,,D,]2 | [G,,,G,,]2 [G,,G,]2 [F,,F,]2 [B,,,B,,]2 | %7
 z [G,,,G,,][A,,,A,,][B,,,B,,] [C,,C,]2 [C,,C,]2 | [F,,C,]2 [B,,F,]2 [F,,C,]2 z2 | %9
 [C,,C,]2 [G,,,G,,]2 [C,,C,]2 [G,,,G,,]2 | [C,,C,]2 [G,,,G,,]2 [C,,C,]2 [G,,,G,,]2- | %11
 [G,,,G,,][A,,,A,,][B,,,B,,][C,,C,] [D,,D,]2 [A,,,A,,]2 | [D,,D,]2 [G,,D,=B,]2 [D,,D,]2 z2 | %13
 [G,,G,]2 [F,,F,]2 [E,,E,]2 [G,,,G,,]2 | [C,,C,]2 (3([F,,F,][E,,E,][D,,D,]) [C,,C,]2 [G,,,G,,]2- | %15
 [G,,,G,,][A,,,A,,][B,,,B,,][C,,C,] [D,,D,]2 [A,,,A,,]2 | %16
 [D,,D,]2 [G,,D,=B,]2 [D,,D,] [C,,C,][C,,C,][C,,C,] | [F,,F,]2 [E,,E,]2 [D,,D,]2 [C,,C,]2 | %18
 [F,,,F,,]2 ([F,,F,]>[E,,E,]) [D,,D,]2 [A,,,A,,]2 | [C,,C,]2 [C,,C,]2 [C,,C,]2 [C,,C,]2 | %20
 [F,,F,]2 [B,,F,]2 [F,,C,] [C,,C,][C,,C,][C,,C,] | [F,,F,]2 [E,,E,]2 [D,,D,]2 [C,,C,]2 | %22
 [F,,,F,,]2 ([F,,F,]>[E,,E,]) [D,,D,]2 [A,,,A,,]2 | [C,,C,]2 [C,,C,]2 [C,,C,]2 [C,,C,]2 | %24
 [F,,,F,,]2 [B,,,B,,]2 [F,,C,] !>![F,,F,]!>![F,,F,]!>![F,,F,] | %25
 [B,,,B,,]2 [F,B,D]2 [D,,D,]2 [D,,D,]2 | [G,,G,]2 ([F,,F,]>[E,,E,]) [D,,D,]2 [_D,,_D,]2 | %27
 [C,,C,]2 [C,,C,]2 [C,,C,]2 [C,,C,]2 | [F,,,F,,]2 [B,,,B,,]2 [F,,C,] [F,,F,][F,,F,][F,,F,] | %29
 [B,,,B,,]2 [F,B,D]2 [D,,D,]2 [D,,D,]2 | [G,,,G,,]2 [A,,,A,,]>[B,,,B,,] [C,,C,]4 |2 %31
 [F,,F,][E,,E,][D,,D,][_D,,_D,] [C,,C,]2 [C,,C,]2 | [F,,,F,,]2 [B,,,B,,]2 C, z [A,,,A,,]2 :|3 %33
 [F,,F,][F,F][E,E][D,D] [C,C][B,,B,][A,,A,][G,,G,] | [F,,F,] z [F,,,F,,] z [F,,,F,,] z z2 |] %35
V:4
 x8 |: x8 | x8 | x8 | [D,,D,]2 [E,,E,]2 [F,,F,]4 | x8 | x8 | x8 | x8 | x8 | x8 | x8 | x8 | x8 | %14
 x8 | x8 | x8 | x8 | x8 | x8 | x8 | x8 | x8 | x8 | x8 | x8 | x8 | x8 | x8 | x8 | x8 |2 x8 | x8 :|3 %33
 x8 | x8 |] %35

